X:1981
T: Fisher's Hornpipe
O:england
R: hornpipe, reel
M: C|
L: 1/8
K: G
(3d/e/f/ \
| "G"gdBG "C"cedc | "G"BGBG "C"cedc | "G"BGBG  "C"cAcA | "G"BGBG "D7"Adef |
| "G"gdBG "C"cedc | "G"BGBG "C"cedc | "G"Bcde "D7"fgaf | "G"g2g2 g2 :|
|: fg \
| "D"afdf ac'ba | "G"bgdg bd'c'b | "D"afdf abc'b | "A7"agfe "D"d2d2 |
| "C"ecGc egfe | "G"dBGB dBgd | "C"egfe "D7"dcBA | "G"G2G2 G2 :|
%%sep 8 8 8cm


